X: 1
T:Belles of Tipperary, The
R:reel
H:See also #515
D:Sean Ryan: Siuil Uait
Z:id:hn-reel-633
M:C|
K:D
d2fA d2fA|d2fe dB~B2|dBAF AB (3def|afef dBAB|
d2fA d2fA|d2fe dB~B2|dBAF A2AB|AFEG FDD2:|
|:fa~a2 afdf|gfed (3Bcd ef|g2gf gbag|f2af egfe|
dB~B2 AF~F2|DF~F2 ABdf|afef dB~B2|~a3g fd~d2:|
